X:832
T:Padraig O'Keefe's Slide
S:Sharon Shannon
Z:Nigel Gatherer
M:12/8
L:1/8
K:D
F2A ABA G2B BAG | F2A A2F E2F D2E | F2A ABA G2B BAG | e2d cBA d3 d3 :| 
f2A f2A g2B g2f | e2d c2d e2d cBA | f2A f2A g2B g2f | e2d cBA d3 d3 :| 
<end>
<start>
